!!!OTL: ICH GUNG ENMAL SPAZIERE
!!!ARE: Europa, Mitteleuropa, Deutschland
!!!SCT: E0533
!!!YEM: Copyright 1995, estate of Helmut Schaffrath.
**kern
*ICvox
*Ivox
*M2/4
*k[f#]
*G:
{8d
=1
8g
8f#
8g
8a
=2
4b
8g
8d
=3
4a
8r}
{8d
=4
8g
8f#
8g
8a
=5
4b
4g}
=6
{8a
16a
16a
8a
16dd
16dd
=7
4b
8r}
{8b
=8
8b
8a
8g
8f#
=9
4f#
8e}
{8B
=10
4e
8r
8d
=11
4g
8r
8d
=12
4.b}
==
!!!AGN: Liebes - Lied
!!!ONB: ESAC (Essen Associative Code) Database: ERK1
!!!AMT: simple duple
!!!AIN: vox
!!!EED: Helmut Schaffrath
!!!EEV: 1.0
*-
